packages/vibrant-icons/assets/icons/Hot/Regular.svg

<svg width="24" height="24" viewBox="0 0 24 24" fill="none" xmlns="http://www.w3.org/2000/svg">
<path d="M11.9999 20.0998C10.9579 20.0998 10.1499 18.0303 10.1499 16.2498C10.1499 14.5718 10.9104 13.3998 11.9999 13.3998C13.0894 13.3998 13.8499 14.5718 13.8499 16.2498C13.8499 18.0303 13.0419 20.0998 11.9999 20.0998ZM22.0999 13.6248C22.0999 12.3928 21.8144 11.1793 21.2279 9.91521C20.7754 8.94071 20.1629 7.97171 19.3009 6.86671C18.9464 6.41221 18.5314 5.98221 18.0924 5.52671C16.7849 4.17121 15.4334 2.76921 15.4334 0.499707V0.387207L15.3214 0.400207C11.2484 0.883207 8.72839 2.83921 7.33139 4.39521C5.66939 6.24621 4.66689 8.61171 4.63539 10.7453C3.89539 10.7038 3.25939 10.1983 2.96039 9.40521L2.87889 9.18871L2.77739 9.39671C2.13089 10.7183 1.90039 12.4473 1.90039 13.6248C1.90039 18.9378 6.33689 23.0998 12.0004 23.0998C17.6639 23.0998 22.1004 18.9378 22.1004 13.6248H22.0999ZM6.55489 13.2418C6.59539 13.2418 6.63489 13.2418 6.67439 13.2403L6.77839 13.2378L6.77239 13.1343C6.66289 11.2868 6.82889 9.78771 7.28039 8.55021C7.71639 7.35571 8.37889 6.52221 8.96889 5.86471C9.82289 4.91371 11.3259 3.64571 13.6564 2.97071C14.2944 4.75771 15.5204 6.02871 16.5089 7.05371C16.9069 7.46621 17.2824 7.85621 17.5664 8.21971C19.1804 10.2888 19.8999 11.9558 19.8999 13.6248C19.8999 17.7043 16.4299 20.8998 11.9999 20.8998C7.56989 20.8998 4.09989 17.7043 4.09989 13.6248C4.09989 13.3948 4.11039 13.1553 4.13089 12.9113C4.64539 13.0403 5.67289 13.2413 6.55439 13.2413L6.55489 13.2418Z" fill="#0C0C0C"/>
</svg>

<svg xmlns="http://www.w3.org/2000/svg" width="24" height="24" fill="none"><path fill="#0C0C0C" d="M12 20.1c-1.042 0-1.85-2.07-1.85-3.85 0-1.678.76-2.85 1.85-2.85s1.85 1.172 1.85 2.85c0 1.78-.808 3.85-1.85 3.85m10.1-6.475c0-1.232-.286-2.446-.872-3.71-.453-.974-1.065-1.943-1.927-3.048-.355-.455-.77-.885-1.209-1.34C16.785 4.17 15.433 2.769 15.433.5V.387L15.321.4c-4.073.483-6.593 2.44-7.99 3.995-1.662 1.851-2.664 4.217-2.696 6.35-.74-.041-1.376-.547-1.675-1.34L2.88 9.19l-.102.208c-.646 1.321-.877 3.05-.877 4.228C1.9 18.938 6.337 23.1 12 23.1c5.664 0 10.1-4.162 10.1-9.475m-15.545-.383q.06 0 .12-.002l.103-.002-.006-.104c-.11-1.847.057-3.346.508-4.584.436-1.194 1.099-2.028 1.689-2.685.854-.951 2.357-2.22 4.687-2.894.638 1.787 1.864 3.058 2.853 4.083.398.412.773.802 1.057 1.166 1.614 2.069 2.334 3.736 2.334 5.405 0 4.08-3.47 7.275-7.9 7.275s-7.9-3.196-7.9-7.275q0-.347.03-.714c.515.13 1.543.33 2.424.33"/></svg>
